src/uni2593-dark-shade.svg

<?xml version="1.0" encoding="UTF-8" standalone="no"?>
<svg
   xmlns:dc="http://purl.org/dc/elements/1.1/"
   xmlns:cc="http://creativecommons.org/ns#"
   xmlns:rdf="http://www.w3.org/1999/02/22-rdf-syntax-ns#"
   xmlns:svg="http://www.w3.org/2000/svg"
   xmlns="http://www.w3.org/2000/svg"
   width="1024"
   height="2048"
   viewBox="0 0 1024 2048"
   version="1.1"
   id="svg8">
  <defs
     id="defs2" />
  <metadata
     id="metadata5">
    <rdf:RDF>
      <cc:Work
         rdf:about="">
        <dc:format>image/svg+xml</dc:format>
        <dc:type
           rdf:resource="http://purl.org/dc/dcmitype/StillImage" />
        <dc:title></dc:title>
        <cc:license
           rdf:resource="http://creativecommons.org/publicdomain/zero/1.0/" />
      </cc:Work>
      <cc:License
         rdf:about="http://creativecommons.org/publicdomain/zero/1.0/">
        <cc:permits
           rdf:resource="http://creativecommons.org/ns#Reproduction" />
        <cc:permits
           rdf:resource="http://creativecommons.org/ns#Distribution" />
        <cc:permits
           rdf:resource="http://creativecommons.org/ns#DerivativeWorks" />
      </cc:License>
    </rdf:RDF>
  </metadata>
  <g
     id="layer1"
     transform="translate(0,244.86668)" />
  <path
     style="fill:#000000;fill-opacity:1;stroke:none;stroke-width:250;stroke-linecap:butt;stroke-linejoin:round;stroke-miterlimit:4;stroke-dasharray:none;stroke-dashoffset:162;stroke-opacity:1"
     d="m 0,0 v 2048 h 64 v -64 h 64 v 64 h 64 v -64 h 64 v 64 h 64 v -64 h 64 v 64 h 64 v -64 h 64 v 64 h 64 v -64 h 64 v 64 h 64 v -64 h 64 v 64 h 64 v -64 h 64 v 64 h 64 v -64 h 64 v -64 h -64 v -64 h 64 v -64 h -64 v -64 h 64 v -64 h -64 v -64 h 64 v -64 h -64 v -64 h 64 v -64 h -64 v -64 h 64 v -64 h -64 v -64 h 64 v -64 h -64 v -64 h 64 v -64 h -64 v -64 h 64 v -64 h -64 v -64 h 64 v -64 h -64 v -64 h 64 v -64 h -64 v -64 h 64 v -64 h -64 v -64 h 64 v -64 h -64 v -64 h 64 v -64 h -64 v -64 h 64 V 128 H 960 V 64 h 64 V 0 Z m 64,64 h 64 v 64 H 64 Z m 128,0 h 64 v 64 h -64 z m 128,0 h 64 v 64 h -64 z m 128,0 h 64 v 64 h -64 z m 128,0 h 64 v 64 h -64 z m 128,0 h 64 v 64 h -64 z m 128,0 h 64 v 64 H 832 Z M 64,192 h 64 v 64 H 64 Z m 128,0 h 64 v 64 h -64 z m 128,0 h 64 v 64 h -64 z m 128,0 h 64 v 64 h -64 z m 128,0 h 64 v 64 h -64 z m 128,0 h 64 v 64 h -64 z m 128,0 h 64 v 64 H 832 Z M 64,320 h 64 v 64 H 64 Z m 128,0 h 64 v 64 h -64 z m 128,0 h 64 v 64 h -64 z m 128,0 h 64 v 64 h -64 z m 128,0 h 64 v 64 h -64 z m 128,0 h 64 v 64 h -64 z m 128,0 h 64 v 64 H 832 Z M 64,448 h 64 v 64 H 64 Z m 128,0 h 64 v 64 h -64 z m 128,0 h 64 v 64 h -64 z m 128,0 h 64 v 64 h -64 z m 128,0 h 64 v 64 h -64 z m 128,0 h 64 v 64 h -64 z m 128,0 h 64 v 64 H 832 Z M 64,576 h 64 v 64 H 64 Z m 128,0 h 64 v 64 h -64 z m 128,0 h 64 v 64 h -64 z m 128,0 h 64 v 64 h -64 z m 128,0 h 64 v 64 h -64 z m 128,0 h 64 v 64 h -64 z m 128,0 h 64 v 64 H 832 Z M 64,704 h 64 v 64 H 64 Z m 128,0 h 64 v 64 h -64 z m 128,0 h 64 v 64 h -64 z m 128,0 h 64 v 64 h -64 z m 128,0 h 64 v 64 h -64 z m 128,0 h 64 v 64 h -64 z m 128,0 h 64 v 64 H 832 Z M 64,832 h 64 v 64 H 64 Z m 128,0 h 64 v 64 h -64 z m 128,0 h 64 v 64 h -64 z m 128,0 h 64 v 64 h -64 z m 128,0 h 64 v 64 h -64 z m 128,0 h 64 v 64 h -64 z m 128,0 h 64 v 64 H 832 Z M 64,960 h 64 v 64 H 64 Z m 128,0 h 64 v 64 h -64 z m 128,0 h 64 v 64 h -64 z m 128,0 h 64 v 64 h -64 z m 128,0 h 64 v 64 h -64 z m 128,0 h 64 v 64 h -64 z m 128,0 h 64 v 64 H 832 Z M 64,1088 h 64 v 64 H 64 Z m 128,0 h 64 v 64 h -64 z m 128,0 h 64 v 64 h -64 z m 128,0 h 64 v 64 h -64 z m 128,0 h 64 v 64 h -64 z m 128,0 h 64 v 64 h -64 z m 128,0 h 64 v 64 H 832 Z M 64,1216 h 64 v 64 H 64 Z m 128,0 h 64 v 64 h -64 z m 128,0 h 64 v 64 h -64 z m 128,0 h 64 v 64 h -64 z m 128,0 h 64 v 64 h -64 z m 128,0 h 64 v 64 h -64 z m 128,0 h 64 v 64 H 832 Z M 64,1344 h 64 v 64 H 64 Z m 128,0 h 64 v 64 h -64 z m 128,0 h 64 v 64 h -64 z m 128,0 h 64 v 64 h -64 z m 128,0 h 64 v 64 h -64 z m 128,0 h 64 v 64 h -64 z m 128,0 h 64 v 64 H 832 Z M 64,1472 h 64 v 64 H 64 Z m 128,0 h 64 v 64 h -64 z m 128,0 h 64 v 64 h -64 z m 128,0 h 64 v 64 h -64 z m 128,0 h 64 v 64 h -64 z m 128,0 h 64 v 64 h -64 z m 128,0 h 64 v 64 H 832 Z M 64,1600 h 64 v 64 H 64 Z m 128,0 h 64 v 64 h -64 z m 128,0 h 64 v 64 h -64 z m 128,0 h 64 v 64 h -64 z m 128,0 h 64 v 64 h -64 z m 128,0 h 64 v 64 h -64 z m 128,0 h 64 v 64 H 832 Z M 64,1728 h 64 v 64 H 64 Z m 128,0 h 64 v 64 h -64 z m 128,0 h 64 v 64 h -64 z m 128,0 h 64 v 64 h -64 z m 128,0 h 64 v 64 h -64 z m 128,0 h 64 v 64 h -64 z m 128,0 h 64 v 64 H 832 Z M 64,1856 h 64 v 64 H 64 Z m 128,0 h 64 v 64 h -64 z m 128,0 h 64 v 64 h -64 z m 128,0 h 64 v 64 h -64 z m 128,0 h 64 v 64 h -64 z m 128,0 h 64 v 64 h -64 z m 128,0 h 64 v 64 h -64 z"
     id="rect8695" />
</svg>

<?xml version="1.0" encoding="UTF-8" standalone="no"?>
<svg
   xmlns:dc="http://purl.org/dc/elements/1.1/"
   xmlns:cc="http://creativecommons.org/ns#"
   xmlns:rdf="http://www.w3.org/1999/02/22-rdf-syntax-ns#"
   xmlns:svg="http://www.w3.org/2000/svg"
   xmlns="http://www.w3.org/2000/svg"
   id="svg8"
   version="1.1"
   viewBox="0 0 1024 2048"
   height="2048"
   width="1024">
  <defs
     id="defs2" />
  <metadata
     id="metadata5">
    <rdf:RDF>
      <cc:Work
         rdf:about="">
        <dc:format>image/svg+xml</dc:format>
        <dc:type
           rdf:resource="http://purl.org/dc/dcmitype/StillImage" />
        <dc:title></dc:title>
        <cc:license
           rdf:resource="http://creativecommons.org/publicdomain/zero/1.0/" />
      </cc:Work>
      <cc:License
         rdf:about="http://creativecommons.org/publicdomain/zero/1.0/">
        <cc:permits
           rdf:resource="http://creativecommons.org/ns#Reproduction" />
        <cc:permits
           rdf:resource="http://creativecommons.org/ns#Distribution" />
        <cc:permits
           rdf:resource="http://creativecommons.org/ns#DerivativeWorks" />
      </cc:License>
    </rdf:RDF>
  </metadata>
  <g
     transform="translate(0,244.86668)"
     id="layer1" />
  <path
     id="rect8695"
     d="M 0 0 L 0 64 L 0 128 L 0 192 L 0 256 L 0 320 L 0 384 L 0 448 L 0 512 L 0 576 L 0 640 L 0 704 L 0 768 L 0 832 L 0 896 L 0 960 L 0 1024 L 0 1088 L 0 1152 L 0 1216 L 0 1280 L 0 1344 L 0 1408 L 0 1472 L 0 1536 L 0 1600 L 0 1664 L 0 1728 L 0 1792 L 0 1856 L 0 1920 L 0 1984 L 0 2048 L 64 2048 L 64 1984 L 128 1984 L 128 2048 L 192 2048 L 192 1984 L 256 1984 L 256 2048 L 320 2048 L 320 1984 L 384 1984 L 384 2048 L 448 2048 L 448 1984 L 512 1984 L 512 2048 L 576 2048 L 576 1984 L 640 1984 L 640 2048 L 704 2048 L 704 1984 L 768 1984 L 768 2048 L 832 2048 L 832 1984 L 896 1984 L 896 2048 L 960 2048 L 960 1984 L 1024 1984 L 1024 1920 L 960 1920 L 960 1856 L 1024 1856 L 1024 1792 L 960 1792 L 960 1728 L 1024 1728 L 1024 1664 L 960 1664 L 960 1600 L 1024 1600 L 1024 1536 L 960 1536 L 960 1472 L 1024 1472 L 1024 1408 L 960 1408 L 960 1344 L 1024 1344 L 1024 1280 L 960 1280 L 960 1216 L 1024 1216 L 1024 1152 L 960 1152 L 960 1088 L 1024 1088 L 1024 1024 L 960 1024 L 960 960 L 1024 960 L 1024 896 L 960 896 L 960 832 L 1024 832 L 1024 768 L 960 768 L 960 704 L 1024 704 L 1024 640 L 960 640 L 960 576 L 1024 576 L 1024 512 L 960 512 L 960 448 L 1024 448 L 1024 384 L 960 384 L 960 320 L 1024 320 L 1024 256 L 960 256 L 960 192 L 1024 192 L 1024 128 L 960 128 L 960 64 L 1024 64 L 1024 0 L 960 0 L 896 0 L 832 0 L 768 0 L 704 0 L 640 0 L 576 0 L 512 0 L 448 0 L 384 0 L 320 0 L 256 0 L 192 0 L 128 0 L 64 0 L 0 0 z M 64 64 L 128 64 L 128 128 L 64 128 L 64 64 z M 192 64 L 256 64 L 256 128 L 192 128 L 192 64 z M 320 64 L 384 64 L 384 128 L 320 128 L 320 64 z M 448 64 L 512 64 L 512 128 L 448 128 L 448 64 z M 576 64 L 640 64 L 640 128 L 576 128 L 576 64 z M 704 64 L 768 64 L 768 128 L 704 128 L 704 64 z M 832 64 L 896 64 L 896 128 L 832 128 L 832 64 z M 64 192 L 128 192 L 128 256 L 64 256 L 64 192 z M 192 192 L 256 192 L 256 256 L 192 256 L 192 192 z M 320 192 L 384 192 L 384 256 L 320 256 L 320 192 z M 448 192 L 512 192 L 512 256 L 448 256 L 448 192 z M 576 192 L 640 192 L 640 256 L 576 256 L 576 192 z M 704 192 L 768 192 L 768 256 L 704 256 L 704 192 z M 832 192 L 896 192 L 896 256 L 832 256 L 832 192 z M 64 320 L 128 320 L 128 384 L 64 384 L 64 320 z M 192 320 L 256 320 L 256 384 L 192 384 L 192 320 z M 320 320 L 384 320 L 384 384 L 320 384 L 320 320 z M 448 320 L 512 320 L 512 384 L 448 384 L 448 320 z M 576 320 L 640 320 L 640 384 L 576 384 L 576 320 z M 704 320 L 768 320 L 768 384 L 704 384 L 704 320 z M 832 320 L 896 320 L 896 384 L 832 384 L 832 320 z M 64 448 L 128 448 L 128 512 L 64 512 L 64 448 z M 192 448 L 256 448 L 256 512 L 192 512 L 192 448 z M 320 448 L 384 448 L 384 512 L 320 512 L 320 448 z M 448 448 L 512 448 L 512 512 L 448 512 L 448 448 z M 576 448 L 640 448 L 640 512 L 576 512 L 576 448 z M 704 448 L 768 448 L 768 512 L 704 512 L 704 448 z M 832 448 L 896 448 L 896 512 L 832 512 L 832 448 z M 64 576 L 128 576 L 128 640 L 64 640 L 64 576 z M 192 576 L 256 576 L 256 640 L 192 640 L 192 576 z M 320 576 L 384 576 L 384 640 L 320 640 L 320 576 z M 448 576 L 512 576 L 512 640 L 448 640 L 448 576 z M 576 576 L 640 576 L 640 640 L 576 640 L 576 576 z M 704 576 L 768 576 L 768 640 L 704 640 L 704 576 z M 832 576 L 896 576 L 896 640 L 832 640 L 832 576 z M 64 704 L 128 704 L 128 768 L 64 768 L 64 704 z M 192 704 L 256 704 L 256 768 L 192 768 L 192 704 z M 320 704 L 384 704 L 384 768 L 320 768 L 320 704 z M 448 704 L 512 704 L 512 768 L 448 768 L 448 704 z M 576 704 L 640 704 L 640 768 L 576 768 L 576 704 z M 704 704 L 768 704 L 768 768 L 704 768 L 704 704 z M 832 704 L 896 704 L 896 768 L 832 768 L 832 704 z M 64 832 L 128 832 L 128 896 L 64 896 L 64 832 z M 192 832 L 256 832 L 256 896 L 192 896 L 192 832 z M 320 832 L 384 832 L 384 896 L 320 896 L 320 832 z M 448 832 L 512 832 L 512 896 L 448 896 L 448 832 z M 576 832 L 640 832 L 640 896 L 576 896 L 576 832 z M 704 832 L 768 832 L 768 896 L 704 896 L 704 832 z M 832 832 L 896 832 L 896 896 L 832 896 L 832 832 z M 64 960 L 128 960 L 128 1024 L 64 1024 L 64 960 z M 192 960 L 256 960 L 256 1024 L 192 1024 L 192 960 z M 320 960 L 384 960 L 384 1024 L 320 1024 L 320 960 z M 448 960 L 512 960 L 512 1024 L 448 1024 L 448 960 z M 576 960 L 640 960 L 640 1024 L 576 1024 L 576 960 z M 704 960 L 768 960 L 768 1024 L 704 1024 L 704 960 z M 832 960 L 896 960 L 896 1024 L 832 1024 L 832 960 z M 64 1088 L 128 1088 L 128 1152 L 64 1152 L 64 1088 z M 192 1088 L 256 1088 L 256 1152 L 192 1152 L 192 1088 z M 320 1088 L 384 1088 L 384 1152 L 320 1152 L 320 1088 z M 448 1088 L 512 1088 L 512 1152 L 448 1152 L 448 1088 z M 576 1088 L 640 1088 L 640 1152 L 576 1152 L 576 1088 z M 704 1088 L 768 1088 L 768 1152 L 704 1152 L 704 1088 z M 832 1088 L 896 1088 L 896 1152 L 832 1152 L 832 1088 z M 64 1216 L 128 1216 L 128 1280 L 64 1280 L 64 1216 z M 192 1216 L 256 1216 L 256 1280 L 192 1280 L 192 1216 z M 320 1216 L 384 1216 L 384 1280 L 320 1280 L 320 1216 z M 448 1216 L 512 1216 L 512 1280 L 448 1280 L 448 1216 z M 576 1216 L 640 1216 L 640 1280 L 576 1280 L 576 1216 z M 704 1216 L 768 1216 L 768 1280 L 704 1280 L 704 1216 z M 832 1216 L 896 1216 L 896 1280 L 832 1280 L 832 1216 z M 64 1344 L 128 1344 L 128 1408 L 64 1408 L 64 1344 z M 192 1344 L 256 1344 L 256 1408 L 192 1408 L 192 1344 z M 320 1344 L 384 1344 L 384 1408 L 320 1408 L 320 1344 z M 448 1344 L 512 1344 L 512 1408 L 448 1408 L 448 1344 z M 576 1344 L 640 1344 L 640 1408 L 576 1408 L 576 1344 z M 704 1344 L 768 1344 L 768 1408 L 704 1408 L 704 1344 z M 832 1344 L 896 1344 L 896 1408 L 832 1408 L 832 1344 z M 64 1472 L 128 1472 L 128 1536 L 64 1536 L 64 1472 z M 192 1472 L 256 1472 L 256 1536 L 192 1536 L 192 1472 z M 320 1472 L 384 1472 L 384 1536 L 320 1536 L 320 1472 z M 448 1472 L 512 1472 L 512 1536 L 448 1536 L 448 1472 z M 576 1472 L 640 1472 L 640 1536 L 576 1536 L 576 1472 z M 704 1472 L 768 1472 L 768 1536 L 704 1536 L 704 1472 z M 832 1472 L 896 1472 L 896 1536 L 832 1536 L 832 1472 z M 64 1600 L 128 1600 L 128 1664 L 64 1664 L 64 1600 z M 192 1600 L 256 1600 L 256 1664 L 192 1664 L 192 1600 z M 320 1600 L 384 1600 L 384 1664 L 320 1664 L 320 1600 z M 448 1600 L 512 1600 L 512 1664 L 448 1664 L 448 1600 z M 576 1600 L 640 1600 L 640 1664 L 576 1664 L 576 1600 z M 704 1600 L 768 1600 L 768 1664 L 704 1664 L 704 1600 z M 832 1600 L 896 1600 L 896 1664 L 832 1664 L 832 1600 z M 64 1728 L 128 1728 L 128 1792 L 64 1792 L 64 1728 z M 192 1728 L 256 1728 L 256 1792 L 192 1792 L 192 1728 z M 320 1728 L 384 1728 L 384 1792 L 320 1792 L 320 1728 z M 448 1728 L 512 1728 L 512 1792 L 448 1792 L 448 1728 z M 576 1728 L 640 1728 L 640 1792 L 576 1792 L 576 1728 z M 704 1728 L 768 1728 L 768 1792 L 704 1792 L 704 1728 z M 832 1728 L 896 1728 L 896 1792 L 832 1792 L 832 1728 z M 64 1856 L 128 1856 L 128 1920 L 64 1920 L 64 1856 z M 192 1856 L 256 1856 L 256 1920 L 192 1920 L 192 1856 z M 320 1856 L 384 1856 L 384 1920 L 320 1920 L 320 1856 z M 448 1856 L 512 1856 L 512 1920 L 448 1920 L 448 1856 z M 576 1856 L 640 1856 L 640 1920 L 576 1920 L 576 1856 z M 704 1856 L 768 1856 L 768 1920 L 704 1920 L 704 1856 z M 832 1856 L 896 1856 L 896 1920 L 832 1920 L 832 1856 z "
     style="fill:#000000;fill-opacity:1;stroke:none;stroke-width:250;stroke-linecap:butt;stroke-linejoin:round;stroke-miterlimit:4;stroke-dasharray:none;stroke-dashoffset:162;stroke-opacity:1" />
</svg>
